X:1
T:Тико-тико
T:Тико-тико
T:Самба
T:З. Абрэу
C:З. Абрэу
%%score { 1 | 2 } { 3 | 4 }
L:1/8
Q:1/2=116
M:2/2
K:Ab
V:1 treble nm="Piano" snm="Pno."
V:2 treble 
V:3 treble nm="Piano" snm="Pno."
V:4 bass 
V:1
"^Allegro"!mf!!8va(! (f'=e'!<(!f'g' b'a'g'a' | c''_e'a'c'' e''!<)!=d''_d''c'' | %2
!>(! b'a'g'f' e'd'c'b | a2) z2!8va)!!>)! z!mf! (c=Bc |: d) .c2 !^!f- f(c=Bc | %5
 d) .c2 !^!=e- e(c=Bc | dc)(bg =ecB__B | A2) z2 z (f_fe | d) .f2 !^!b- b(afd | %9
 c) .f2 !^!a- a(ag^f |1 g)(G=B=d fagf | =e4) z (c=Bc) :|2 gc=eg c'bag | f2 z2 z (gf_f |: %14
 e)(Ace) (Ace=e | f3) .d z (gf_f | e)(GBe) (GBe=e |1 f3) .c z .a.a.a | (!>!ag).g.g- g.f.f.f | %19
 !>!fd.d.d- d.g.g.g | (!>!ge).e.g (!>!fd).d.f | e4- e(gf(_f) :|2 f3) .!^!c z (ag_g || f=efg baga | %24
 c')(eac' e'=d'_d'c' | bagf edcB | A2) z2 z (c=Bc |: d) .c2 !^!f- f(c=Bc | d) .c2 !^!=e- e(c=Bc | %29
 dc)(bg =ecB__B | A2) z2 z (f_fe | d) .f2 !^!b- b(afd | c) .f2 !^!a- a(ag^f |1 g)(G=B=d fagf | %34
 =e4) z (c=B(c) :|2 g)(c=eg c'bag | f2) z2 z4 |] %37
V:2
 [dfa]4 z4 | [cea]4 z4 | [dfb]4 z4 | [ce]2 z2 z4 |: [FA]6 z2 | [=EG]6 z2 | [=EG]6 z2 | F2 z2 z4 | %8
 [FB]6 z2 | [FA]6 z2 |1 G6 z2 | =E4 z4 :|2 [=EG]6 z2 | [FA]2 z2 z4 |: [EA]6 z2 | [FB]6 z2 | %16
 [DG]6 z2 |1 [FA]2 z2 z4 | [EA]4 z4 | [_DG]4 z4 | [EG]4 z4 | [EA]4 z4 :|2 [FA]3 z z4 || %23
 [DF] z z2 z4 | [CFA] z z2 z4 | [=DA] z z2 [EG] z z2 | [CE]2 z2 z4 |: [FA]6 z2 | [=EG]6 z2 | %29
 [=EG]6 z2 | F2 z2 z4 | [FB]6 z2 | [FA]6 z2 |1 G6 z2 | =E4 z4 :|2 [=EG]6 z2 | [FA]2 z2 z4 |] %37
V:3
!mf! A,4 A,4 | A,4 =A,4 | B,4 [DE]4 | [CE]2 z e [ca]2 z2 |:!mf! z [A,C=D]z[A,CD] z [A,CD]z[A,CD] | %5
 z [B,C]z[B,C] z [B,C]z[B,C] | z [B,C]z[B,C] z [B,C]z[B,C] | [A,C=D]2 z A cAG_G | %8
 z [B,_D]z[B,D] z [A,D]z[A,D] | z [A,C=D]z[A,CD] z [A,CD]z[A,CD] |1 z [=B,F]z[B,F] z [CF]z[B,F] | %11
 z2 z G [=EBc] z z2 :|2 z [B,C]z[B,C] z [B,C]z[B,C] | [A,C=D]2 z [Bc] [Acf] z z2 |: %14
 z [A,C]z[A,C] z [A,C]z=E | z [G,B,D]z[G,B,D] z [G,B,D]z^F | z [G,D]z[G,D] z [G,D]z=E |1 %17
 z [A,C]z[A,C] z [A,C]z[A,C] | z [A,C]z[A,C] z [A,=D]z[A,D] | z [G,B,]z[G,B,] z [G,B,]z[G,B,] | %20
 z [G,D]z[G,D] z [G,D]z[G,D] | z [A,C]z[A,C] z [A,C] z2 :|2 z [A,C]z[A,C] z [A,C]z=E || %23
 [DF]2 z2 [DA]2 z2 | [A,C]2 z2 [E=Ac]2 z2 | B, z z2 [B,_D] z z2 | z2 ce [cea] z z2 |: %27
 z [A,C=D]z[A,CD] z [A,CD]z[A,CD] | z [B,C]z[B,C] z [B,C]z[B,C] | z [B,C]z[B,C] z [B,C]z[B,C] | %30
 [A,C=D]2 z A cAG_G | z [B,_D]z[B,D] z [A,D]z[A,D] | z [A,C=D]z[A,CD] z [A,CD]z[A,CD] |1 %33
 z [=B,F]z[B,F] z [CF]z[B,F] | z2 z G [=EBc] z z2 :|2 z [B,C]z[B,C] z [B,C]z[B,C] | %36
 [A,C=D]2 z c [Acf]2 z2 |] %37
V:4
 [D,F,]4 [=B,,=D,F,]4 | [C,E,]4 [C,E,G,]4 | [_D,F,]4 [E,,E,]4 | A,,2 z E, A,,2 z2 |: %4
 F,,2 A,,2 C,2 F,,2 | G,,2 B,,2 C,2 G,,2 | C,,2 G,,2 C,2 G,,2 | F,,4 A,,2 =A,,2 | %8
 B,,2 D,2 F,,2 =B,,2 | C,2 F,,2 A,,2 C,2 |1 G,,2 =B,,2 =D,2 G,,2 | z2 z G,, [C,,C,] z z2 :|2 %12
 G,,2 C,2 =E,2 C,2 | F,,2 z C, F,, z z2 |: A,,2 C,2 A,,2 _C,2 | B,,2 D,2 E,2 E,,2 | %16
 B,,2 D,2 E,2 E,,2 |1 A,,2 C,2 E,2 E,,2 | C,2 E,2 C,2 _C,2 | B,,2 D,2 E,2 E,,2 | %20
 B,,2 D,2 E,2 =B,,2 | C,2 E,2 C,2 E,,2 :|2 A,,2 C,2 E,2 A,,2 || [D,,D,]2 z2 [F,,F,]2 z2 | %24
 [E,,E,]2 z2 [F,,F,]2 z2 | [B,,A,] z z2 [E,G,] z z2 | [A,,E,]2 z E,, A,,, z z2 |: %27
 F,,2 A,,2 C,2 F,,2 | G,,2 B,,2 C,2 G,,2 | C,,2 G,,2 C,2 G,,2 | F,,4 A,,2 =A,,2 | %31
 B,,2 D,2 F,,2 =B,,2 | C,2 F,,2 A,,2 C,2 |1 G,,2 =B,,2 =D,2 G,,2 | C,2 z G,, [C,,C,] z z2 :|2 %35
 G,,2 B,,2 C,2 G,,2 | F,,2 z C,, F,,,2 z2 |] %37

